X:15189
T:Secilian,The. JC.082
T:Sicilian,The,aka. JC.082
M:6/8
L:1/8
Q:180
S:John Clare,Poet,Helpston. (1793-1864)
R:Jig
O:England
A:Northamptonshire
N:
Z:P Headford
K:D
f2f efg|afdc2A|FAd GBd|efg{f}e3|f2f efg|afdc2A|
FAd Bag|edcd3:|!
|:afd ecA|afd ecA|afd Bgf|
efd cBA|afd ecA|afd ecA|afd dgf|edcd3:|]
W: tune no 83, see tune 3.
